X: 1
T: Dandy Denny Cronin
M: 4/4
L: 1/8
R: reel
K: Amix
Aeed edef | gedg eAAG | Aeed edef | gedB BA A2 |
Aeed edef | gefd e2 ed | Bdef g2 ga | gedB BA A2 :|
a2 ef g2 ga | gefd efge | a2 ef g2 ga | gedB BA A2 |
a2 ef g2 ga | gefd e2 ed | Bdef g2 ga | gedB BA A2 :|
